svg/fluentui-system-icons/ic_fluent_conference_room_16_filled.svg

<svg width="16" height="16" viewBox="0 0 16 16" fill="none" xmlns="http://www.w3.org/2000/svg">
<path d="M7.18301 2.11333C7.29885 2.01836 7.45117 1.98034 7.59806 2.00971L12.5981 3.00971C12.8318 3.05646 13 3.26166 13 3.5V12.4969C13 12.7352 12.8318 12.9404 12.5981 12.9872L7.59806 13.9872C7.45117 14.0166 7.29885 13.9785 7.18301 13.8836C7.06716 13.7886 7 13.6467 7 13.4969V2.5M10 7.99841C10 7.72227 9.77614 7.49841 9.5 7.49841C9.22386 7.49841 9 7.72227 9 7.99841C9 8.27456 9.22386 8.49841 9.5 8.49841C9.77614 8.49841 10 8.27456 10 7.99841Z" fill="#212121"/>
<path d="M6 3H3.5C3.22386 3 3 3.22386 3 3.5V12.4969C3 12.773 3.22386 12.9969 3.5 12.9969H6V3Z" fill="#212121"/>
<path d="M7.18301 2.11333C7.06716 2.2083 7 2.35021 7 2.5Z" fill="#212121"/>
</svg>

<svg xmlns="http://www.w3.org/2000/svg" width="16" height="16"><path d="M7.183 2.113a.5.5 0 0 1 .415-.103l5 1A.5.5 0 0 1 13 3.5v8.997a.5.5 0 0 1-.402.49l-5 1a.5.5 0 0 1-.598-.49V2.5m3 5.498a.5.5 0 1 0-1 0 .5.5 0 0 0 1 0ZM6 3H3.5a.5.5 0 0 0-.5.5v8.997a.5.5 0 0 0 .5.5H6V3Zm1.183-.887A.5.5 0 0 0 7 2.5Z"/></svg>
